svgs/letter_uppercase_b.svg

<svg xmlns="http://www.w3.org/2000/svg" viewBox="0 0 192 192"><path d="M166.905 16.5H25.095a8.599 8.599 0 0 0-6.078 2.517 8.599 8.599 0 0 0-2.517 6.078v141.81c0 2.279.906 4.467 2.517 6.078a8.599 8.599 0 0 0 6.078 2.517h141.81a8.599 8.599 0 0 0 6.078-2.517 8.599 8.599 0 0 0 2.517-6.078V25.095a8.599 8.599 0 0 0-2.517-6.078 8.599 8.599 0 0 0-6.078-2.517ZM57.238 154.014V37.986" fill="none" stroke="#000" stroke-width="12" stroke-linecap="round" stroke-linejoin="round"/><path d="M57.324 37.986h48.517a28.978 28.978 0 0 1 20.412 8.544 28.978 28.978 0 0 1 8.423 20.463 28.977 28.977 0 0 1-8.423 20.463A28.974 28.974 0 0 1 105.841 96H57.324M57.324 96h48.517a28.974 28.974 0 0 1 20.412 8.544 28.977 28.977 0 0 1 8.423 20.463 28.971 28.971 0 0 1-14.445 25.105 28.974 28.974 0 0 1-14.476 3.902H57.324" fill="none" stroke="#000" stroke-width="12" stroke-linecap="round" stroke-linejoin="round"/></svg>

<svg
    xmlns="http://www.w3.org/2000/svg"
    viewBox="0 0 192 192"
    id="vector">
    <path
        id="path"
        d="M 166.905 16.5 L 25.095 16.5 C 22.816 16.5 20.628 17.406 19.017 19.017 C 17.406 20.628 16.5 22.816 16.5 25.095 L 16.5 166.905 C 16.5 169.184 17.406 171.372 19.017 172.983 C 20.628 174.594 22.816 175.5 25.095 175.5 L 166.905 175.5 C 169.184 175.5 171.372 174.594 172.983 172.983 C 174.594 171.372 175.5 169.184 175.5 166.905 L 175.5 25.095 C 175.5 22.816 174.594 20.628 172.983 19.017 C 171.372 17.406 169.184 16.5 166.905 16.5 Z M 57.238 154.014 L 57.238 37.986"
        fill="none"
        stroke="#000000"
        stroke-width="12"
        stroke-linecap="round"
        stroke-linejoin="round"/>
    <path
        id="path_1"
        d="M 57.324 37.986 L 105.841 37.986 C 113.505 38.021 120.85 41.095 126.253 46.53 C 131.656 51.966 134.687 59.329 134.676 66.993 C 134.687 74.657 131.656 82.021 126.253 87.456 C 120.85 92.891 113.505 95.966 105.841 96 L 57.324 96"
        fill="none"
        stroke="#000000"
        stroke-width="12"
        stroke-linecap="round"
        stroke-linejoin="round"/>
    <path
        id="path_2"
        d="M 57.324 96 L 105.841 96 C 113.505 96.034 120.85 99.109 126.253 104.544 C 131.656 109.979 134.687 117.343 134.676 125.007 C 134.683 130.091 133.352 135.088 130.817 139.494 C 128.281 143.901 124.63 147.563 120.231 150.112 C 115.832 152.66 110.839 154.006 105.755 154.014 L 57.324 154.014"
        fill="none"
        stroke="#000000"
        stroke-width="12"
        stroke-linecap="round"
        stroke-linejoin="round"/>
</svg>
